svgs/sleep.svg

<svg width="192" height="192" viewBox="0 0 192 192" fill="none" xmlns="http://www.w3.org/2000/svg"><g clip-path="url(#a)" stroke="#000" stroke-width="12" stroke-linecap="round" stroke-linejoin="round"><path d="M30 22h62L30 96h62m25-24h46l-46 55h46m-109 0h36l-36 43h36"/></g><defs><clipPath id="a"><path fill="#fff" d="M0 0h192v192H0z"/></clipPath></defs></svg>

<svg id="vector" xmlns="http://www.w3.org/2000/svg" width="192" height="192" viewBox="0 0 192 192"><defs><clipPath id="clip_path_0"><path d="M0,0h192v192h-192z"/></clipPath></defs><g id="g_0"><path fill="#00000000" d="M30,22H92L30,96H92" stroke-linejoin="round" stroke-width="12" stroke="#000000" stroke-linecap="round" clip-path="url(#clip_path_0)"/><path fill="#00000000" d="M117,72H163L117,127H163" stroke-linejoin="round" stroke-width="12" stroke="#000000" stroke-linecap="round"/><path fill="#00000000" d="M54,127H90L54,170H90" stroke-linejoin="round" stroke-width="12" stroke="#000000" stroke-linecap="round"/></g></svg>
